X: 18542
M: 2/4
L: 1/16
K: G
V: 1 clef=treble middle=B
|:\
|:\
e>AB>c d>GA>B | c>BA>G F>dc>A |
d>Bg>f e>ca>g | f>ga>b g2z2 :|
V: 2 clef=bass middle=d
|:\
[bg]d'[bg]d' [bg]d'[bg]d' | [bg]d'[bg]d' [bg]d'[c'a]d' |\
[bg]d'[bg]d' [ec]a[e^c]a | [fd]a[fd]a [f2d2]z2 |\
[bg]d'[bg]d' [bg]d'[c'a]d' |
[bg]d'[bg]d' [bg]d'[c'a]d' |\
[b2g2]c'2d'2d2 | [b2g2]d'2 [b2g2]z2 :|\
|:\
[fd]a[fd]a [fd]a[fd]a | [gd]b[gd]b [gd]b[gd]b |\
[ec]a[ec]a [dB]g[dB]g |
[ec]a[e^c]a [f2d2]z2 |\
[bg]d'[bg]d' [bg]d'[c'a]d' | [bg]d'[bg]d' [bg]d'[c'a]d' |\
[bg]d'[bg]d' [ec]a[ec]a | [ad]c'[fd]c' [b2g2]z2 :|

